src/assets/img/happenings_home_link.svg

<svg fill="none" viewBox="0 0 490 85" xmlns="http://www.w3.org/2000/svg"><g stroke="#cae47c" stroke-linecap="round" stroke-width="7"><path d="m248.857 81.2873c5.448-.054 11.005-.4602 16.416-.7087 55.205-2.535 110.409-4.1857 165.693-8.4674 8.214-.6361 10.545-.6552 16.856-3.2568"/><path d="m469.283 11.9502c4.065 1.1585 20.182 12.0634 16.128 15.7702-2.439 6.1123-14.882 14.1788-14.882 14.1788"/><path d="m10.9542 62.8777c10.9039.1968 21.97.0449 32.7685.0446 110.1673-.0024 220.4753.8831 330.5223-.8694 16.35-.2604 21.016-.1721 33.24-2.4936"/></g></svg>

<svg viewBox="0 0 490 85" fill="none" xmlns="http://www.w3.org/2000/svg">
<path d="M248.857 81.2873C254.305 81.2333 259.862 80.8271 265.273 80.5786C320.478 78.0436 375.682 76.3929 430.966 72.1112C439.18 71.4751 441.511 71.456 447.822 68.8544" stroke="#CAE47C" stroke-width="7" stroke-linecap="round"/>
<path d="M469.283 11.9502C473.348 13.1087 489.465 24.0136 485.411 27.7204C482.972 33.8327 470.529 41.8992 470.529 41.8992" stroke="#CAE47C" stroke-width="7" stroke-linecap="round"/>
<path class="default" d="M10.9542 62.8777C21.8581 63.0745 32.9242 62.9226 43.7227 62.9223C153.89 62.9199 264.198 63.8054 374.245 62.0529C390.595 61.7925 395.261 61.8808 407.485 59.5593" stroke="#CAE47C" stroke-width="7" stroke-linecap="round"/>
</svg>
